X:1
T:Revelation
T:Revelation
T:Azimuth OST - 18
T:MD Steele Arr. Rayerdyne 
C:MD Steele
%%score { 1 | 2 }
L:1/8
Q:1/4=110
M:4/4
K:D
V:1 treble nm="Piano" snm="Pia."
V:2 bass 
V:1
|: z2 B/B/F/B/- B/BF/ BB | z2 A/A/E/A/- A/AE/ AA :| z2 G/G/D/G/- G/GD/ GG | %3
 z2 A/A/E/A/- A/AE/ AA |] %4
V:2
|: B,,8 | A,,8 :| G,,8 | A,,8 |] %4

